Catalina-light/status/16/weather-clear-night.svg

<?xml version="1.0" encoding="UTF-8" standalone="no"?>
<svg
   xmlns:dc="http://purl.org/dc/elements/1.1/"
   xmlns:cc="http://creativecommons.org/ns#"
   xmlns:rdf="http://www.w3.org/1999/02/22-rdf-syntax-ns#"
   xmlns:svg="http://www.w3.org/2000/svg"
   xmlns="http://www.w3.org/2000/svg"
   xmlns:sodipodi="http://sodipodi.sourceforge.net/DTD/sodipodi-0.dtd"
   xmlns:inkscape="http://www.inkscape.org/namespaces/inkscape"
   height="16"
   width="16"
   id="svg2"
   version="1.1"
   sodipodi:docname="night-light-symbolic.svg"
   inkscape:version="0.92.3 (2405546, 2018-03-11)">
  <sodipodi:namedview
     pagecolor="#ffffff"
     bordercolor="#666666"
     borderopacity="1"
     objecttolerance="10"
     gridtolerance="10"
     guidetolerance="10"
     inkscape:pageopacity="0"
     inkscape:pageshadow="2"
     inkscape:window-width="1635"
     inkscape:window-height="893"
     id="namedview7"
     showgrid="true"
     inkscape:zoom="32"
     inkscape:cx="7.3559322"
     inkscape:cy="8"
     inkscape:window-x="0"
     inkscape:window-y="33"
     inkscape:window-maximized="0"
     inkscape:current-layer="svg2">
    <inkscape:grid
       type="xygrid"
       id="grid16" />
  </sodipodi:namedview>
  <metadata
     id="metadata12">
    <rdf:RDF>
      <cc:Work
         rdf:about="">
        <dc:format>image/svg+xml</dc:format>
        <dc:type
           rdf:resource="http://purl.org/dc/dcmitype/StillImage" />
        <dc:title></dc:title>
      </cc:Work>
    </rdf:RDF>
  </metadata>
  <defs
     id="defs10" />
  <path
     style="color:#000000;display:inline;overflow:visible;visibility:visible;opacity:1;vector-effect:none;fill:#666666;fill-opacity:1;fill-rule:nonzero;stroke:none;stroke-width:1;stroke-linecap:butt;stroke-linejoin:miter;stroke-miterlimit:4;stroke-dasharray:none;stroke-dashoffset:0;stroke-opacity:1;marker:none;enable-background:accumulate"
     d="M 7.5,4 C 5.0170522,4 3,6.0170549 3,8.5 3,10.982946 5.0170522,13 7.5,13 9.9829429,13 12.000005,10.982946 12,8.5 12,6.0170549 9.9829429,4 7.5,4 Z M 7.418501,4.8693181 h 0.00164 c 0.022901,-2.159e-4 0.04581,-2.159e-4 0.068711,0 h 0.00483 C 6.7278458,5.4414364 6.2761105,6.3407628 6.2743923,7.2966975 6.2729196,8.9746821 7.6326289,10.335821 9.3106143,10.336115 9.8540826,10.334561 10.387183,10.187238 10.854293,9.909446 9.7443374,12.584278 6.1085784,12.958098 4.4774578,10.565282 2.8462702,8.1724662 4.5230501,4.9248676 7.418501,4.8693181 Z"
     id="path28"
     inkscape:connector-curvature="0"
     sodipodi:nodetypes="ssscscccccccsc" />
  <rect
     style="opacity:1;fill:#666666;fill-opacity:1;fill-rule:nonzero;stroke:none;stroke-width:1;stroke-linecap:round;stroke-linejoin:round;stroke-miterlimit:4;stroke-dasharray:none;stroke-dashoffset:0;stroke-opacity:1"
     id="rect828"
     width="2"
     height="1"
     x="0"
     y="8"
     ry="0.33898306" />
  <rect
     ry="0.33898306"
     y="8"
     x="13"
     height="1"
     width="2"
     id="rect830"
     style="opacity:1;fill:#666666;fill-opacity:1;fill-rule:nonzero;stroke:none;stroke-width:1;stroke-linecap:round;stroke-linejoin:round;stroke-miterlimit:4;stroke-dasharray:none;stroke-dashoffset:0;stroke-opacity:1" />
  <rect
     style="opacity:1;fill:#666666;fill-opacity:1;fill-rule:nonzero;stroke:none;stroke-width:1;stroke-linecap:round;stroke-linejoin:round;stroke-miterlimit:4;stroke-dasharray:none;stroke-dashoffset:0;stroke-opacity:1"
     id="rect832"
     width="2"
     height="1"
     x="-3"
     y="7"
     ry="0.33898306"
     transform="rotate(-90)" />
  <rect
     transform="rotate(-90)"
     ry="0.33898306"
     y="7"
     x="-16"
     height="1"
     width="2"
     id="rect834"
     style="opacity:1;fill:#666666;fill-opacity:1;fill-rule:nonzero;stroke:none;stroke-width:1;stroke-linecap:round;stroke-linejoin:round;stroke-miterlimit:4;stroke-dasharray:none;stroke-dashoffset:0;stroke-opacity:1" />
  <rect
     transform="rotate(-135)"
     ry="0.33898306"
     y="-1.2310673"
     x="-5.8171649"
     height="1"
     width="2"
     id="rect855"
     style="opacity:1;fill:#696363;fill-opacity:1;fill-rule:nonzero;stroke:none;stroke-width:1;stroke-linecap:round;stroke-linejoin:round;stroke-miterlimit:4;stroke-dasharray:none;stroke-dashoffset:0;stroke-opacity:1" />
  <rect
     style="opacity:1;fill:#696363;fill-opacity:1;fill-rule:nonzero;stroke:none;stroke-width:1;stroke-linecap:round;stroke-linejoin:round;stroke-miterlimit:4;stroke-dasharray:none;stroke-dashoffset:0;stroke-opacity:1"
     id="rect4560"
     width="2"
     height="1"
     x="4.7654757"
     y="-12.167262"
     ry="0.33898306"
     transform="matrix(0.70710678,-0.70710678,-0.70710678,-0.70710678,0,0)" />
  <rect
     transform="rotate(45)"
     ry="0.33898306"
     y="0.032194629"
     x="16.788158"
     height="1"
     width="2"
     id="rect4562"
     style="opacity:1;fill:#696363;fill-opacity:1;fill-rule:nonzero;stroke:none;stroke-width:1;stroke-linecap:round;stroke-linejoin:round;stroke-miterlimit:4;stroke-dasharray:none;stroke-dashoffset:0;stroke-opacity:1" />
  <rect
     style="opacity:1;fill:#696363;fill-opacity:1;fill-rule:nonzero;stroke:none;stroke-width:1;stroke-linecap:round;stroke-linejoin:round;stroke-miterlimit:4;stroke-dasharray:none;stroke-dashoffset:0;stroke-opacity:1"
     id="rect4564"
     width="2"
     height="1"
     x="6.1834173"
     y="10.548541"
     ry="0.33898306"
     transform="matrix(-0.70710678,0.70710678,0.70710678,0.70710678,0,0)" />
</svg>

<svg width="16" height="16" version="1.1" xmlns="http://www.w3.org/2000/svg">
<path d="m7.5 4c-2.4829 0-4.5 2.0171-4.5 4.5 0 2.4829 2.0171 4.5 4.5 4.5 2.4829 0 4.5-2.0171 4.5-4.5 0-2.4829-2.0171-4.5-4.5-4.5zm-0.081499 0.86932h0.00164c0.022901-2.159e-4 0.04581-2.159e-4 0.068711 0h0.00483c-0.76584 0.57212-1.2176 1.4714-1.2193 2.4274-0.0014727 1.678 1.3582 3.0391 3.0362 3.0394 0.54347-0.001554 1.0766-0.14888 1.5437-0.42667-1.11 2.6748-4.7457 3.0487-6.3768 0.65584-1.6312-2.3928 0.045592-5.6404 2.941-5.696z" color="#000000" fill="#666"/>
<rect y="8" width="2" height="1" ry=".33898" fill="#666"/>
<rect x="13" y="8" width="2" height="1" ry=".33898" fill="#666"/>
<rect transform="rotate(-90)" x="-3" y="7" width="2" height="1" ry=".33898" fill="#666"/>
<rect transform="rotate(-90)" x="-16" y="7" width="2" height="1" ry=".33898" fill="#666"/>
<rect transform="rotate(225)" x="-5.8172" y="-1.2311" width="2" height="1" ry=".33898" fill="#696363"/>
<rect transform="matrix(.70711 -.70711 -.70711 -.70711 0 0)" x="4.7655" y="-12.167" width="2" height="1" ry=".33898" fill="#696363"/>
<rect transform="rotate(45)" x="16.788" y=".032195" width="2" height="1" ry=".33898" fill="#696363"/>
<rect transform="matrix(-.70711 .70711 .70711 .70711 0 0)" x="6.1834" y="10.549" width="2" height="1" ry=".33898" fill="#696363"/>
</svg>
